X: 161
T: Xinshang de ren
%%abc-version 2.0
%%abcx-abcm2ps-target-version 5.9.1 (29 Sep 2008)
%%abc-creator hum2abc beta
%%abcx-conversion-date 2013/10/02 07:52:29
%%abc-edited-by Helmut Schaffrath
%%humdrum-veritas 4199239541
%%humdrum-veritas-data 890472571
%%continueall 1
%%barnumbers 0
L: 1/8
M: 2/4
K: F
c2c d [I:setbarnb 1]| 
c2B A | 
G2G A | 
c4 | 
A2A G | 
F4 | 
c2c A | 
G3A | 
C2C D | 
F4 | 
A G F D | 
C4 |]  



